packages/core/src/svgs/tokens/branded/JUNGLE4EOS.svg

<svg width="24" height="24" viewBox="0 0 24 24" fill="none" xmlns="http://www.w3.org/2000/svg">
<path d="M10.2142 15.7954C9.73869 15.7511 9.26758 15.7688 8.83203 15.8399C9.28092 15.9999 9.82757 16.1822 10.4053 16.4044L10.2142 15.7954Z" fill="#006838"/>
<path d="M9.81756 14.5288C9.30199 14.4933 8.79533 14.5244 8.32867 14.6177L8.32422 14.6265C8.80422 14.7733 9.39089 14.9377 10.0087 15.1465L9.81756 14.5288Z" fill="#006838"/>
<path d="M9.4353 13.2888C9.32418 13.2845 9.21307 13.28 9.10196 13.28L8.84863 13.7155C9.10196 13.7822 9.36418 13.8533 9.6309 13.9288L9.4353 13.2888Z" fill="#006838"/>
<path d="M12.3733 17.6622C11.9778 17.4445 11.5601 17.2889 11.1333 17.1911L11.3778 17.9777C11.5867 18.08 11.7956 18.1866 12.0001 18.3022H13.2844C13.0044 18.0577 12.7023 17.84 12.3733 17.6622Z" fill="#006838"/>
<path d="M9.12949 12.3022L9.05838 12.0755C8.54282 12.0488 8.02727 12.0888 7.55172 12.1822L7.51172 12.36C7.93838 12.4488 8.42282 12.5422 8.92504 12.6622L9.12949 12.3022Z" fill="#006838"/>
<path d="M8.51611 8.41326C9.15611 8.52437 9.76496 8.66214 10.2806 8.77326C10.4228 9.03103 10.565 9.29326 10.7028 9.55542L10.8183 9.35103C10.7117 9.15992 10.6006 8.97326 10.4895 8.78658C10.5206 7.92881 10.4806 6.82214 10.4272 5.69769L10.0006 6.31103C10.085 7.22658 10.2538 8.08437 10.4761 8.75103C10.3028 8.46215 10.125 8.17769 9.94284 7.89326C9.94721 7.46658 9.93384 6.96881 9.90722 6.43992L9.63171 6.82658C9.71609 7.21769 9.82284 7.58214 9.93834 7.89326C9.89384 7.82658 9.85384 7.75547 9.80946 7.68881C9.71171 7.53769 9.60946 7.38658 9.50723 7.23992C9.50278 7.17326 9.49389 7.10214 9.48945 7.03547L9.43611 7.11103C9.44945 7.13769 9.45834 7.16437 9.47168 7.19103C9.45834 7.16881 9.44056 7.14658 9.42723 7.12437L9.33834 7.25326C9.36056 7.25769 9.38278 7.26658 9.40056 7.27103C9.48945 7.41326 9.57384 7.55547 9.65834 7.69769C9.52056 7.59992 9.36945 7.51103 9.20945 7.43103L8.99611 7.73326C9.26723 7.78214 9.525 7.83103 9.76059 7.87103C9.89834 8.09769 10.0317 8.32881 10.1606 8.56437C9.79171 8.29769 9.34723 8.07547 8.86278 7.91992L8.51611 8.41326Z" fill="#006838"/>
<path d="M8.72931 9.45771C9.36043 9.58218 9.96933 9.73331 10.5205 9.87543L10.6805 9.59543C10.0716 9.15993 9.30709 8.82216 8.48486 8.67993L8.72931 9.45771Z" fill="#006838"/>
<path d="M9.76469 11.0533C9.57807 11.0044 9.38251 10.9688 9.19141 10.9377L9.43584 11.7154C9.44473 11.7154 9.45362 11.7199 9.45807 11.7199L9.83582 11.0666C9.80919 11.0666 9.78694 11.0622 9.76469 11.0533Z" fill="#006838"/>
<path d="M8.5558 10.4666L8.32914 9.7333C8.26246 9.7288 8.1958 9.72443 8.12914 9.72443L7.97803 10.3644C8.16914 10.3954 8.36469 10.4311 8.5558 10.4666Z" fill="#006838"/>
<path d="M9.09767 9.84001C9.00879 9.82226 8.9199 9.80451 8.83545 9.79114L9.0799 10.5778C9.39101 10.6445 9.69317 10.72 9.99105 10.8045L10.3154 10.2445C9.93318 10.0623 9.52434 9.92451 9.09767 9.84001Z" fill="#006838"/>
<path d="M8.90713 11.5955L8.68935 10.8933C8.40935 10.8755 8.12935 10.88 7.85379 10.9022L7.74268 11.3733C8.11601 11.4355 8.51158 11.5066 8.90713 11.5955Z" fill="#006838"/>
<path d="M7.74268 13.44C7.93824 13.4888 8.15601 13.5422 8.38268 13.6L8.55158 13.3066C8.27158 13.3333 8.00046 13.3777 7.74268 13.44Z" fill="#006838"/>
<path d="M9.22259 6.60445L9.40927 6.34223C9.33815 5.80889 9.24482 5.22223 9.15149 4.63555C8.99149 3.68445 8.82704 2.72445 8.60482 2C8.55593 2.85334 8.59149 3.86223 8.75149 4.80889C8.85815 5.45778 9.02704 6.07555 9.22259 6.60445Z" fill="#006838"/>
<path d="M12.7871 18.7645C13.0005 18.8978 13.2094 19.04 13.4094 19.1778L13.5382 18.7645H12.7871Z" fill="#006838"/>
<path d="M10.3955 4.94226C10.3423 4.00448 10.2755 3.09337 10.1733 2.37781C9.99551 3.31558 9.91113 4.4667 9.95551 5.56892L10.3955 4.94226Z" fill="#006838"/>
<path d="M11.9072 2.80003C11.8984 2.65337 11.885 2.51115 11.8717 2.37781C11.8229 2.59558 11.7739 2.82226 11.7295 3.05337L11.9072 2.80003Z" fill="#006838"/>
<path d="M11.1075 3.93334C11.0675 3.32445 11.0186 2.76 10.952 2.26666C10.8141 2.96 10.7164 3.74666 10.6675 4.56L11.1075 3.93334Z" fill="#006838"/>
<path d="M9.51587 6.19111L9.87147 5.68888C9.8581 5.44888 9.84035 5.20888 9.82697 4.96888C9.75147 3.90666 9.67147 2.8311 9.52921 2.02222C9.3781 2.93333 9.32032 4.04888 9.39587 5.10222C9.4181 5.47554 9.4581 5.84444 9.51587 6.19111Z" fill="#006838"/>
<path d="M7.91539 8.60885C6.92428 8.52885 5.90206 8.70219 5.05762 9.03996C5.79539 9.0933 6.76873 9.14663 7.75096 9.2933L7.91539 8.60885Z" fill="#006838"/>
<path d="M14.2534 16.4622L15.1779 13.4888C15.249 13.0045 15.3112 12.5288 15.3645 12.0755L15.0979 11.6133C14.8445 12.5066 14.6268 13.4888 14.4757 14.4577C14.3734 15.1422 14.2979 15.8177 14.2534 16.4622Z" fill="#006838"/>
<path d="M6.65761 3.75552C6.7065 3.82663 6.75984 3.90219 6.81316 3.98219C6.91984 4.13331 7.03095 4.29331 7.1465 4.45331C7.37761 4.77331 7.63095 5.11108 7.89316 5.43552C8.28873 5.93774 8.69762 6.41775 9.07984 6.81331L9.19539 6.64886C8.93762 6.13775 8.59539 5.59108 8.20428 5.09774C7.93761 4.76886 7.65761 4.45774 7.36873 4.19108C7.2265 4.05774 7.07984 3.93331 6.93761 3.82663C6.8665 3.77331 6.79539 3.71997 6.71984 3.67108C6.68428 3.64886 6.64873 3.62663 6.60873 3.60442C6.56873 3.58219 6.53316 3.55997 6.49316 3.54663C6.52428 3.57331 6.55095 3.61331 6.57761 3.64886C6.60428 3.68442 6.63095 3.71997 6.65761 3.75552Z" fill="#006838"/>
<path d="M8.85793 7.11988L9.02237 6.88876C8.59571 6.59543 8.07571 6.36433 7.51571 6.25765C6.71571 6.09321 5.84904 6.17765 5.16016 6.43988C5.74682 6.5021 6.55571 6.58654 7.34682 6.75099C7.87571 6.85321 8.39571 6.99099 8.85793 7.11988Z" fill="#006838"/>
<path d="M8.4895 7.64441L8.77393 7.23996C8.43172 7.11108 8.06282 7.01774 7.67616 6.98219C6.79616 6.87996 5.86282 7.04885 5.12061 7.3733C5.76949 7.39551 6.65393 7.40885 7.52504 7.51108C7.85393 7.54219 8.17838 7.59108 8.4895 7.64441Z" fill="#006838"/>
<path d="M12.0841 8.08882C12.1152 9.67993 12.2352 11.4888 12.4886 12.7377C12.3864 12.4933 12.2797 12.2488 12.173 12.0088C12.0709 11.7822 11.9641 11.5554 11.8575 11.3333C11.942 10.4488 11.982 9.36882 11.9997 8.23104L11.4752 9.15548C11.5552 9.92881 11.6752 10.6488 11.8264 11.2622C11.6309 10.8533 11.4264 10.4533 11.213 10.0577C11.2175 10.0577 11.2264 10.0622 11.2309 10.0622C11.222 10.0533 11.2086 10.0399 11.1952 10.0311C11.1952 10.0311 11.1952 10.0266 11.1909 10.0266C11.1997 9.88881 11.2041 9.75106 11.213 9.60443L11.0975 9.80443C11.1064 9.83543 11.1152 9.86656 11.1197 9.89331C11.1064 9.87106 11.093 9.84881 11.0841 9.82656L10.9552 10.0488C11.102 10.3377 11.2441 10.6266 11.3864 10.9199C11.182 10.7554 10.9552 10.5999 10.7152 10.4622L10.4441 10.9377C10.8397 11.0533 11.213 11.1688 11.5552 11.2754C11.6975 11.5733 11.8352 11.8754 11.9641 12.1822C11.973 12.1999 11.9775 12.2133 11.9864 12.2311C11.5152 11.8088 10.9286 11.4577 10.2841 11.2222L9.91973 11.8577C10.7241 12.0844 11.4975 12.3644 12.1509 12.6044C12.2886 12.9288 12.422 13.2533 12.5509 13.5866C11.982 13.0266 11.222 12.5599 10.3864 12.3154C10.1775 12.2533 9.96411 12.1999 9.74636 12.1644L9.63086 12.3688L9.79523 12.9022C9.89748 12.9333 9.99974 12.9599 10.102 12.9911C11.0441 13.2711 11.9509 13.6577 12.702 13.9688C12.773 14.1554 12.8397 14.3422 12.9064 14.5288C12.9597 14.6799 13.013 14.8311 13.062 14.9822C12.5197 14.3866 11.782 13.8799 10.9641 13.5999C10.6309 13.4799 10.2841 13.3999 9.93749 13.3466L10.173 14.1022C10.3375 14.1554 10.4975 14.2088 10.662 14.2711C11.1864 14.4533 11.6975 14.6711 12.1775 14.8888C12.542 15.0577 12.8841 15.2222 13.1997 15.3777C13.3152 15.7288 13.4264 16.0799 13.533 16.4354C13.0175 15.7954 12.302 15.2444 11.493 14.9199C11.1197 14.7644 10.7241 14.6577 10.3286 14.5954L10.5597 15.3466C10.7597 15.4222 10.9641 15.5022 11.1641 15.5866C11.6752 15.7954 12.173 16.0354 12.6397 16.2844C12.9952 16.4754 13.333 16.6622 13.6397 16.8354C13.653 16.8888 13.6709 16.9422 13.6841 16.9954C13.7509 17.2266 13.8086 17.4622 13.8709 17.6977L14.0041 17.2666C13.9686 17.1288 13.9375 16.9954 13.902 16.8577V16.8533C14.1375 15.7777 14.3464 14.3866 14.5241 12.9822C14.6041 12.3154 14.6796 11.6444 14.7419 11.0044L14.4264 10.4533C14.2309 11.2711 14.0709 12.1466 13.9641 13.0088C13.8041 14.2933 13.7641 15.5511 13.8264 16.5866C13.7152 16.1866 13.5952 15.7866 13.4709 15.3954C13.6709 14.3244 13.8309 12.9377 13.9597 11.5422C14.0086 10.9822 14.0575 10.4222 14.0975 9.87993L13.742 9.25771C13.5909 10.0133 13.4752 10.8133 13.4041 11.5999C13.2886 12.8754 13.2886 14.1199 13.3909 15.1377C13.3064 14.8844 13.222 14.6311 13.133 14.3777C13.0841 14.2444 13.0352 14.1154 12.9864 13.9822C13.1464 12.9111 13.262 11.5377 13.3509 10.1466C13.3775 9.66218 13.4041 9.17771 13.4264 8.70216L13.0352 8.02215C12.9152 8.7377 12.8309 9.48882 12.7864 10.2266C12.7109 11.4977 12.7552 12.7288 12.893 13.7333C12.7909 13.4711 12.6886 13.2133 12.582 12.9554C12.693 11.5733 12.773 9.40882 12.7597 7.62659C12.7597 7.59993 12.7597 7.56882 12.7597 7.54215L12.5864 7.23993L12.0841 8.08882Z" fill="#006838"/>
<path d="M10.5733 17.6088C10.6489 17.6444 10.7289 17.6799 10.8089 17.711L10.6178 17.0933C10.1644 17.031 9.71556 17.031 9.30225 17.0844C9.67118 17.2354 10.1067 17.4088 10.5733 17.6088Z" fill="#006838"/>
<path d="M11.9602 16.2711C11.5646 16.08 11.1468 15.9511 10.7202 15.8711L10.9557 16.6266C11.1735 16.72 11.3957 16.8177 11.6135 16.9245C12.1068 17.16 12.5957 17.4266 13.0402 17.6977C13.2802 17.8445 13.5113 17.9911 13.7291 18.1288L13.8313 17.7955C13.3602 17.1688 12.7068 16.6177 11.9602 16.2711Z" fill="#006838"/>
<path d="M12.3328 6.72442V3.71997C12.1773 4.79552 12.0885 5.9822 12.0796 7.16886L12.3328 6.72442Z" fill="#006838"/>
<path d="M7.51557 10.2933L7.6489 9.72443C6.99113 9.75105 6.35113 9.87543 5.78223 10.0754C6.28001 10.1422 6.88002 10.2044 7.51557 10.2933Z" fill="#006838"/>
<path d="M6.48047 11.1645C6.72491 11.2045 6.99602 11.2488 7.28491 11.2933L7.36491 10.96C7.05379 11.0088 6.75602 11.0756 6.48047 11.1645Z" fill="#006838"/>
<path d="M5.29785 8.10212C6.00008 8.14656 6.95119 8.18212 7.8934 8.31989C7.92897 8.32434 7.96897 8.32878 8.00452 8.33767L8.38674 7.79989C8.28452 7.77767 8.17785 7.75989 8.07563 7.74656C7.12452 7.60878 6.10674 7.76878 5.29785 8.10212Z" fill="#006838"/>
<path d="M10.6397 6.35549C10.6708 7.3466 10.7774 8.3066 10.9463 9.13772L11.2397 8.63105C11.2441 7.87105 11.2308 7.03994 11.2086 6.20883C11.1952 5.69771 11.1729 5.18216 11.1508 4.68439L10.6352 5.41328C10.6308 5.72883 10.6308 6.03994 10.6397 6.35549Z" fill="#006838"/>
<path d="M11.3696 7.04442C11.3696 7.47997 11.383 7.91552 11.4096 8.33775L12.014 7.28442C12.014 7.15552 12.014 7.03108 12.014 6.9022C12.014 5.7422 12.0008 4.56886 11.9519 3.54663L11.5608 4.09774C11.4408 5.04442 11.3696 6.05331 11.3696 7.04442Z" fill="#006838"/>
<path d="M11.1385 18.7645H6.7207C6.8407 18.8445 6.98293 18.9378 7.14293 19.0445L12.1429 22L11.1385 18.7645Z" fill="#60C2AC"/>
<path d="M16.9468 9.36438L16.0312 12.3022L18.7556 17.0354L16.9468 9.36438Z" fill="#60C2AC"/>
<path d="M12.8267 6.72446L15.7154 11.7511L16.7199 8.52446L12.8267 3.00446V6.72446Z" fill="#60C2AC"/>
<path d="M14.0229 18.7645L13.0186 22L18.4941 18.7645H14.0229Z" fill="#60C2AC"/>
<path d="M15.8446 12.9066L14.1689 18.3022H18.9423L15.8446 12.9066Z" fill="#60C2AC"/>
</svg>

<svg xmlns="http://www.w3.org/2000/svg" width="24" height="24" fill="none" viewBox="0 0 24 24">
    <path fill="#006838" d="M10.214 15.795a5.5 5.5 0 0 0-1.382.045c.449.16.996.342 1.573.564zm-.396-1.266a5.7 5.7 0 0 0-1.49.089l-.004.008c.48.147 1.067.312 1.685.52zm-.383-1.24q-.166-.008-.333-.009l-.253.436q.38.099.782.213zm2.938 4.373a4.8 4.8 0 0 0-1.24-.47l.245.786q.315.152.622.324h1.284a5 5 0 0 0-.91-.64m-3.244-5.36-.072-.226a6.2 6.2 0 0 0-1.506.106l-.04.178c.426.089.91.182 1.413.302zm-.614-3.889c.64.111 1.249.25 1.765.36q.214.388.422.782l.115-.204q-.16-.286-.328-.564c.03-.858-.01-1.965-.063-3.09l-.426.614c.084.916.253 1.773.475 2.44a34 34 0 0 0-.533-.858c.004-.426-.01-.924-.036-1.453l-.275.387c.084.39.19.755.306 1.066-.044-.066-.084-.138-.129-.204q-.147-.227-.302-.45c-.004-.066-.013-.137-.018-.204l-.053.076c.013.027.022.053.036.08l-.045-.067-.089.13c.023.004.045.013.063.017q.132.213.257.427a3.4 3.4 0 0 0-.449-.267l-.213.302c.271.05.529.098.765.138q.205.34.4.693a4.7 4.7 0 0 0-1.298-.644z"/>
    <path fill="#006838" d="M8.73 9.458c.63.124 1.24.275 1.79.417l.16-.28a5.4 5.4 0 0 0-2.195-.915zm1.035 1.595a6 6 0 0 0-.574-.115l.245.777c.009 0 .018.005.022.005l.378-.653a.2.2 0 0 1-.071-.014m-1.209-.586-.227-.734a3 3 0 0 0-.2-.009l-.151.64c.191.031.387.067.578.103m.542-.627a7 7 0 0 0-.263-.049l.245.787q.465.1.911.227l.324-.56a5.2 5.2 0 0 0-1.217-.405m-.191 1.756-.218-.703a6 6 0 0 0-.835.01l-.111.47c.373.063.769.134 1.164.223M7.743 13.44c.195.049.413.102.64.16l.169-.293q-.421.039-.81.133m1.481-6.836.186-.262c-.07-.533-.164-1.12-.258-1.706-.16-.952-.324-1.912-.546-2.636-.05.853-.014 1.862.146 2.809.107.649.276 1.267.472 1.795m3.564 12.161c.213.133.422.275.622.413l.13-.413zM10.396 4.942c-.054-.938-.12-1.849-.223-2.564a14.7 14.7 0 0 0-.217 3.19zM11.907 2.8a11 11 0 0 0-.035-.422 23 23 0 0 0-.143.675zm-.799 1.133a25 25 0 0 0-.156-1.666c-.138.693-.236 1.48-.284 2.293zM9.516 6.191l.355-.502-.044-.72c-.076-1.062-.156-2.138-.298-2.947a13.7 13.7 0 0 0-.133 3.08c.022.374.062.742.12 1.09M7.915 8.609a6.5 6.5 0 0 0-2.857.431c.737.053 1.71.107 2.693.253zm6.338 7.853.925-2.973c.071-.485.133-.96.186-1.414l-.266-.462a24 24 0 0 0-.622 2.845c-.103.684-.178 1.36-.223 2.004M6.658 3.756q.074.105.155.226c.107.151.218.311.333.471.232.32.485.658.747.983.396.502.805.982 1.187 1.377l.115-.164a9.3 9.3 0 0 0-.99-1.551 9 9 0 0 0-.836-.907 5 5 0 0 0-.431-.364q-.106-.082-.218-.156l-.111-.067c-.04-.022-.076-.044-.116-.057.031.026.058.066.085.102zm2.2 3.364.164-.231a4 4 0 0 0-1.506-.631 4.37 4.37 0 0 0-2.356.182c.587.062 1.396.147 2.187.311.529.102 1.049.24 1.51.369m-.367.524.284-.404a4.2 4.2 0 0 0-1.098-.258 5.1 5.1 0 0 0-2.555.391c.648.023 1.533.036 2.404.138.329.031.653.08.964.133m3.595.445c.031 1.59.151 3.4.405 4.649a36 36 0 0 0-.316-.73 31 31 0 0 0-.316-.675c.085-.884.125-1.964.143-3.102l-.525.924c.08.774.2 1.494.351 2.107q-.293-.613-.613-1.204l.018.004c-.009-.009-.022-.022-.036-.03 0 0 0-.005-.004-.005.009-.138.013-.276.022-.423l-.115.2a1 1 0 0 1 .022.09q-.022-.034-.036-.067l-.129.222q.22.433.431.87a5 5 0 0 0-.67-.457l-.272.476q.596.175 1.111.337.215.447.41.907l.021.05a5.3 5.3 0 0 0-1.702-1.01l-.364.636c.804.226 1.578.506 2.23.746q.208.486.4.983a5.2 5.2 0 0 0-2.164-1.272 5 5 0 0 0-.64-.15l-.115.204.164.533c.102.031.205.058.307.09.942.28 1.849.666 2.6.977q.106.28.204.56.082.226.156.453a5.14 5.14 0 0 0-2.098-1.382c-.333-.12-.68-.2-1.027-.253l.236.755c.165.053.325.107.489.17.524.181 1.035.4 1.515.617q.548.254 1.023.489.173.525.333 1.057a5.1 5.1 0 0 0-2.04-1.515 5 5 0 0 0-1.164-.325l.23.752c.2.075.405.155.605.24.511.208 1.009.448 1.476.697.355.191.693.378 1 .551l.044.16c.067.232.125.467.187.703l.133-.431c-.035-.138-.066-.272-.102-.41v-.004c.236-1.075.444-2.466.622-3.87.08-.668.156-1.339.218-1.979l-.316-.55a24 24 0 0 0-.462 2.555c-.16 1.284-.2 2.542-.138 3.578-.11-.4-.23-.8-.355-1.192.2-1.07.36-2.457.489-3.853.049-.56.097-1.12.137-1.662l-.355-.622a22 22 0 0 0-.338 2.342c-.115 1.275-.115 2.52-.013 3.538q-.126-.38-.258-.76l-.147-.396c.16-1.07.276-2.444.365-3.835.026-.485.053-.97.075-1.445l-.39-.68c-.12.716-.205 1.467-.25 2.205-.075 1.27-.03 2.502.107 3.506q-.152-.392-.311-.778c.111-1.382.191-3.546.178-5.328v-.085l-.174-.302zm-1.511 9.52q.115.053.236.102l-.191-.618a5 5 0 0 0-1.316-.009c.37.151.805.325 1.271.525"/>
    <path fill="#006838" d="M11.96 16.271a5 5 0 0 0-1.24-.4l.236.756q.329.138.658.297c.493.236.982.503 1.426.774.24.146.471.293.69.43l.101-.332a5.04 5.04 0 0 0-1.87-1.525m.372-9.547V3.72a26 26 0 0 0-.253 3.449zm-4.817 3.569.133-.569a6.5 6.5 0 0 0-1.867.351c.498.067 1.098.13 1.734.218m-1.036.872q.37.061.805.128l.08-.333a6 6 0 0 0-.885.204M5.298 8.102c.702.045 1.653.08 2.595.218a1 1 0 0 1 .112.018l.382-.538a4 4 0 0 0-.311-.053 5.5 5.5 0 0 0-2.778.355m5.342-1.747c.03.992.137 1.952.306 2.783l.294-.507a76 76 0 0 0-.09-3.947l-.515.73q-.007.47.005.941m.73.689c0 .436.013.872.04 1.294l.604-1.054v-.382c0-1.16-.013-2.333-.062-3.355l-.391.55c-.12.947-.191 1.956-.191 2.947"/>
    <path fill="#60C2AC" d="M11.139 18.765H6.72l.422.28 5 2.955zm5.808-9.401-.916 2.938 2.725 4.733zm-4.12-2.64 2.888 5.027 1.005-3.227-3.893-5.52zm1.196 12.041L13.019 22l5.475-3.235zm1.822-5.858-1.676 5.395h4.773z"/>
</svg>
